public/icons/truck_icon.svg

<svg width="330" height="330" viewBox="0 0 330 330" fill="none" xmlns="http://www.w3.org/2000/svg">
<path d="M10.3628 72.3329C13.3887 72.1573 16.3953 72.1049 19.4244 72.1006L148.853 72.0685L186.911 72.061C193.474 72.061 200.661 71.5085 207.165 72.3554C209.686 72.6841 212.593 74.1767 214.324 76.0311C220.227 82.3514 217.983 97.3626 217.924 105.431L259.169 105.278C266.858 105.258 277.22 103.822 283.042 109.718C284.729 111.437 286.231 113.328 287.523 115.36C292.948 123.82 327.965 184.397 329.172 190.268C330.431 196.385 329.879 203.368 329.883 209.618L329.825 239.424C329.767 245.632 330.034 251.61 325.064 256.233C318.963 261.907 309.017 260.346 301.343 260.218C301.199 262.846 300.941 265.386 300.284 267.944C297.632 278.279 291.355 285.276 282.386 290.683C277.317 293.02 272.199 294.617 266.59 294.871C256.659 295.237 246.985 291.658 239.685 284.917C232.592 278.268 229.499 269.868 229.187 260.308L110.435 260.353C109.799 268.852 107.785 275.999 102.095 282.579C95.8326 289.938 86.8405 294.428 77.193 295.013C67.2145 295.754 57.3538 292.466 49.8185 285.884C42.3056 279.244 38.8052 270.191 38.1401 260.359C30.097 260.401 18.0534 261.761 10.4196 259.526C6.18329 258.285 3.40482 255.922 1.4586 251.954C0.631701 250.27 0.582442 248.214 0.51389 246.371C-0.555084 217.499 0.374638 188.314 0.378922 159.397L0.359636 112.416C0.342498 103.27 0.0329746 94.0252 0.456066 84.8943C0.539613 83.0859 0.739906 81.3653 1.44791 79.6747C3.14456 75.6232 6.53464 73.8801 10.3628 72.3329Z" fill="black"/>
<path d="M11.9106 81.4586C26.8495 80.9414 41.9426 81.3654 56.8954 81.3643L141.611 81.3397L183.494 81.3247C190.781 81.3247 199.426 80.4489 206.514 81.9886C208.045 83.2788 208.342 83.5593 208.713 85.6118C209.36 89.1879 209.331 214.195 209.008 215.055C208.869 215.425 208.567 215.712 208.345 216.041L206.792 216.2L9.49418 216.181L9.39454 93.066C9.42132 88.4652 8.4948 84.8366 11.9106 81.4586Z" fill="#FEFEFE"/>
<path d="M217.914 114.77C236.981 114.283 256.221 114.602 275.299 114.817C279.293 118.687 281.658 123.769 284.294 128.602C274.195 128.73 254.829 127.137 245.988 129.012C241.786 129.904 240.209 131.675 237.999 135.108C237.805 146.645 236.939 166.245 238.466 176.933C239.132 181.592 240.5 183.661 244.171 186.468C260.746 187.102 277.544 186.544 294.143 186.547C301.93 186.55 310.842 185.656 318.393 187.486C322.319 192.185 320.517 226.837 320.496 235.046C320.548 239.113 321.607 246.419 318.512 249.554C315.372 252.735 305.252 251.4 300.911 251.321C299.742 246.283 297.729 241.37 294.666 237.179C288.899 229.289 279.591 224.251 269.996 222.844C260.369 221.461 250.585 223.936 242.776 229.731C235.719 234.898 231.027 242.677 229.748 251.328L217.922 251.335L217.914 114.77Z" fill="#FEFEFE"/>
<path d="M90.1978 225.194C104.007 224.72 117.941 225.076 131.764 225.073L209.032 225.115L209.006 251.335L110.29 251.353C109.892 249.48 109.5 247.573 108.914 245.748C105.864 236.255 98.8888 229.633 90.1978 225.194Z" fill="#FEFEFE"/>
<path d="M72.4877 231.095C87.4662 230.018 100.534 241.165 101.828 256.12C103.122 271.077 92.163 284.3 77.222 285.811C67.3624 286.808 57.7309 282.419 52.0154 274.325C46.301 266.233 45.3884 255.69 49.629 246.737C53.8685 237.782 62.6034 231.806 72.4877 231.095Z" fill="#FEFEFE"/>
<path d="M71.8594 242.936C80.4391 241.551 88.5056 247.412 89.8349 255.997C91.1652 264.582 85.2494 272.609 76.6537 273.883C68.1362 275.145 60.1961 269.297 58.8775 260.791C57.56 252.283 63.3591 244.308 71.8594 242.936Z" fill="black"/>
<path d="M71.6655 252.273C73.9758 251.3 76.6333 251.661 78.5999 253.215C80.5664 254.769 81.5315 257.27 81.1181 259.742C80.7046 262.214 78.979 264.265 76.6129 265.096C73.1061 266.326 69.2565 264.549 67.9187 261.083C66.5808 257.616 68.24 253.715 71.6655 252.273Z" fill="#FEFEFE"/>
<path d="M263.803 231.068C278.762 230.317 291.549 241.723 292.499 256.666C293.448 271.611 282.208 284.543 267.273 285.69C257.435 286.446 247.951 281.85 242.45 273.662C236.948 265.473 236.28 254.959 240.701 246.139C245.121 237.321 253.947 231.563 263.803 231.068Z" fill="#FEFEFE"/>
<path d="M263.308 242.846C271.797 241.971 279.401 248.108 280.335 256.588C281.269 265.068 275.183 272.713 266.707 273.705C258.147 274.708 250.408 268.55 249.465 259.987C248.522 251.423 254.735 243.729 263.308 242.846Z" fill="black"/>
<path d="M262.824 251.649C265.23 250.891 267.857 251.496 269.69 253.23C271.521 254.964 272.27 257.553 271.645 259.996C271.02 262.44 269.12 264.353 266.681 264.994C263.032 265.956 259.282 263.829 258.234 260.204C257.187 256.58 259.224 252.782 262.824 251.649Z" fill="#FEFEFE"/>
<path d="M247.091 137.18L289.275 137.189C297.051 150.619 305.703 164.08 312.48 178.04C290.847 177.793 269.184 178.036 247.549 178.043C247.617 164.42 247.181 150.802 247.091 137.18Z" fill="#FECE00"/>
<path d="M9.50441 225.09L60.3578 225.1C54.2471 228.211 49.532 231.722 45.0719 236.948C41.8511 241.606 40.0869 245.869 38.6248 251.332C32.286 251.287 25.9685 251.477 19.6329 251.558C16.9026 251.593 13.3444 251.809 11.3167 249.636C7.75098 245.818 9.43479 230.618 9.50441 225.09Z" fill="#FEFEFE"/>
</svg>

<svg xmlns="http://www.w3.org/2000/svg" width="330" height="330" fill="none" viewBox="0 0 330 330"><path fill="#000" d="M10.363 72.333c3.026-.176 6.032-.228 9.061-.232l129.429-.032 38.058-.008c6.563 0 13.75-.553 20.254.294 2.521.33 5.428 1.822 7.159 3.676 5.903 6.32 3.659 21.332 3.6 29.4l41.245-.153c7.689-.02 18.051-1.456 23.873 4.44a34.4 34.4 0 0 1 4.481 5.642c5.425 8.46 40.442 69.037 41.649 74.908 1.259 6.117.707 13.1.711 19.35l-.058 29.806c-.058 6.208.209 12.186-4.761 16.809-6.101 5.674-16.047 4.113-23.721 3.985-.144 2.628-.402 5.168-1.059 7.726-2.652 10.335-8.929 17.332-17.898 22.739-5.069 2.337-10.187 3.934-15.796 4.188a37.62 37.62 0 0 1-26.905-9.954c-7.093-6.649-10.186-15.049-10.498-24.609l-118.752.045c-.636 8.499-2.65 15.646-8.34 22.226a35.52 35.52 0 0 1-24.902 12.434 37.4 37.4 0 0 1-27.374-9.129c-7.513-6.64-11.014-15.693-11.679-25.525-8.043.042-20.087 1.402-27.72-.833-4.237-1.241-7.015-3.604-8.961-7.572-.827-1.684-.877-3.74-.945-5.583-1.07-28.872-.14-58.057-.135-86.974l-.02-46.981c-.017-9.146-.326-18.39.097-27.522.084-1.808.284-3.529.992-5.22 1.697-4.05 5.087-5.794 8.915-7.341"/><path fill="#fefefe" d="M11.91 81.459c14.94-.518 30.033-.094 44.985-.095l84.716-.024 41.883-.015c7.287 0 15.932-.876 23.02.664 1.531 1.29 1.828 1.57 2.199 3.623.647 3.576.618 128.583.295 129.443-.139.37-.441.657-.663.986l-1.553.159-197.298-.019-.1-123.115c.027-4.6-.9-8.23 2.517-11.607m206.003 33.311c19.067-.487 38.307-.168 57.385.047 3.994 3.87 6.359 8.952 8.995 13.785-10.099.128-29.465-1.465-38.306.41-4.202.892-5.779 2.663-7.989 6.096-.194 11.537-1.06 31.137.467 41.825.666 4.659 2.034 6.728 5.705 9.535 16.575.634 33.373.076 49.972.079 7.787.003 16.699-.891 24.25.939 3.926 4.699 2.124 39.351 2.103 47.56.052 4.067 1.111 11.373-1.984 14.508-3.14 3.181-13.26 1.846-17.601 1.767-1.169-5.038-3.182-9.951-6.245-14.142-5.767-7.89-15.075-12.928-24.67-14.335a36.88 36.88 0 0 0-27.22 6.887 32.7 32.7 0 0 0-13.028 21.597l-11.826.007zM90.198 225.194c13.809-.474 27.743-.118 41.566-.121l77.268.042-.026 26.22-98.716.018c-.398-1.873-.79-3.78-1.376-5.605-3.05-9.493-10.025-16.115-18.716-20.554m-17.71 5.901c14.978-1.077 28.046 10.07 29.34 25.025 1.294 14.957-9.665 28.18-24.606 29.691a27.47 27.47 0 0 1-25.207-11.486 27.45 27.45 0 0 1-2.386-27.588 27.47 27.47 0 0 1 22.859-15.642"/><path fill="#000" d="M71.86 242.936c8.58-1.385 16.646 4.476 17.975 13.061s-4.586 16.612-13.181 17.886c-8.518 1.262-16.458-4.586-17.776-13.092-1.318-8.508 4.481-16.483 12.981-17.855"/><path fill="#fefefe" d="M71.666 252.273a6.874 6.874 0 1 1 4.947 12.823 6.88 6.88 0 0 1-8.694-4.013 6.873 6.873 0 0 1 3.746-8.81m192.138-21.205c14.959-.751 27.746 10.655 28.696 25.598.949 14.945-10.291 27.877-25.226 29.024a27.38 27.38 0 0 1-24.823-12.028 27.36 27.36 0 0 1-1.749-27.523 27.38 27.38 0 0 1 23.102-15.071"/><path fill="#000" d="M263.308 242.846c8.489-.875 16.093 5.262 17.027 13.742s-5.152 16.125-13.628 17.117c-8.56 1.003-16.299-5.155-17.242-13.718-.943-8.564 5.27-16.258 13.843-17.141"/><path fill="#fefefe" d="M262.824 251.649a6.947 6.947 0 1 1 3.857 13.345 6.948 6.948 0 0 1-3.857-13.345"/><path fill="#fece00" d="m247.091 137.18 42.184.009c7.776 13.43 16.428 26.891 23.205 40.851-21.633-.247-43.296-.004-64.931.003.068-13.623-.368-27.241-.458-40.863"/><path fill="#fefefe" d="m9.504 225.09 50.854.01c-6.11 3.111-10.826 6.622-15.286 11.848-3.22 4.658-4.985 8.921-6.447 14.384-6.339-.045-12.657.145-18.992.226-2.73.035-6.289.251-8.316-1.922-3.566-3.818-1.882-19.018-1.813-24.546"/></svg>
